humanity-icon-theme/Humanity/actions/24/view-restore.svg

<?xml version="1.0" encoding="UTF-8" standalone="no"?>
<!-- Created with Inkscape (http://www.inkscape.org/) -->

<svg
   xmlns:svg="http://www.w3.org/2000/svg"
   xmlns="http://www.w3.org/2000/svg"
   xmlns:xlink="http://www.w3.org/1999/xlink"
   version="1.0"
   width="24"
   height="24"
   id="svg4375">
  <defs
     id="defs4377">
    <linearGradient
       id="linearGradient5060">
      <stop
         id="stop5062"
         style="stop-color:black;stop-opacity:1"
         offset="0" />
      <stop
         id="stop5064"
         style="stop-color:black;stop-opacity:0"
         offset="1" />
    </linearGradient>
    <linearGradient
       id="linearGradient5048">
      <stop
         id="stop5050"
         style="stop-color:black;stop-opacity:0"
         offset="0" />
      <stop
         id="stop5056"
         style="stop-color:black;stop-opacity:1"
         offset="0.5" />
      <stop
         id="stop5052"
         style="stop-color:black;stop-opacity:0"
         offset="1" />
    </linearGradient>
    <linearGradient
       id="linearGradient3690">
      <stop
         id="stop3692"
         style="stop-color:white;stop-opacity:1"
         offset="0" />
      <stop
         id="stop3694"
         style="stop-color:white;stop-opacity:0.46875"
         offset="1" />
    </linearGradient>
    <linearGradient
       id="linearGradient2781">
      <stop
         id="stop2783"
         style="stop-color:#505050;stop-opacity:1"
         offset="0" />
      <stop
         id="stop6301"
         style="stop-color:#6e6e6e;stop-opacity:1"
         offset="0.13216467" />
      <stop
         id="stop2785"
         style="stop-color:#8c8c8c;stop-opacity:1"
         offset="1" />
    </linearGradient>
    <linearGradient
       id="linearGradient6457">
      <stop
         id="stop6459"
         style="stop-color:white;stop-opacity:0.94117647"
         offset="0" />
      <stop
         id="stop6461"
         style="stop-color:white;stop-opacity:0.70588237"
         offset="1" />
    </linearGradient>
    <linearGradient
       x1="302.85715"
       y1="366.64789"
       x2="302.85715"
       y2="609.50507"
       id="linearGradient5533"
       xlink:href="#linearGradient5048"
       gradientUnits="userSpaceOnUse"
       gradientTransform="matrix(0.03104752,0,0,0.01366805,0.7785389,15.669255)" />
    <radialGradient
       cx="605.71429"
       cy="486.64789"
       r="117.14286"
       fx="605.71429"
       fy="486.64789"
       id="radialGradient5535"
       xlink:href="#linearGradient5060"
       gradientUnits="userSpaceOnUse"
       gradientTransform="matrix(0.03104752,0,0,0.01366805,0.7846491,15.669255)" />
    <radialGradient
       cx="605.71429"
       cy="486.64789"
       r="117.14286"
       fx="605.71429"
       fy="486.64789"
       id="radialGradient5537"
       xlink:href="#linearGradient5060"
       gradientUnits="userSpaceOnUse"
       gradientTransform="matrix(-0.03104752,0,0,0.01366805,23.215356,15.669255)" />
    <linearGradient
       x1="24"
       y1="13"
       x2="24"
       y2="40"
       id="linearGradient5559"
       xlink:href="#linearGradient6457"
       gradientUnits="userSpaceOnUse"
       gradientTransform="matrix(0.5263158,0,0,0.4814815,-0.6315786,1.7407408)" />
    <linearGradient
       x1="16.033964"
       y1="9.0734701"
       x2="16.075121"
       y2="15.044087"
       id="linearGradient5562"
       xlink:href="#linearGradient3690"
       gradientUnits="userSpaceOnUse"
       gradientTransform="matrix(0.6129052,0,0,0.5862092,-3.3226316,-2.0690226)" />
    <linearGradient
       x1="21.866402"
       y1="8.5763302"
       x2="21.780495"
       y2="39.923653"
       id="linearGradient5565"
       xlink:href="#linearGradient2781"
       gradientUnits="userSpaceOnUse"
       gradientTransform="matrix(0.6363644,0,0,0.6229527,-3.9091221,-3.1066008)" />
    <linearGradient
       id="linearGradient6388">
      <stop
         id="stop6390"
         style="stop-color:#73a300;stop-opacity:1"
         offset="0" />
      <stop
         id="stop6392"
         style="stop-color:#428300;stop-opacity:0"
         offset="1" />
    </linearGradient>
    <linearGradient
       x1="39.878677"
       y1="16.121321"
       x2="33.249554"
       y2="22.838835"
       id="linearGradient6639"
       xlink:href="#linearGradient6388"
       gradientUnits="userSpaceOnUse"
       gradientTransform="matrix(0,1,-1,0,25.12132,-26.636038)" />
    <linearGradient
       x1="39.878677"
       y1="16.121321"
       x2="33.249554"
       y2="22.838835"
       id="linearGradient6643"
       xlink:href="#linearGradient6388"
       gradientUnits="userSpaceOnUse"
       gradientTransform="matrix(0,-1,-1,0,25.12132,55.878679)" />
    <linearGradient
       x1="39.878677"
       y1="16.121321"
       x2="33.249554"
       y2="22.838835"
       id="linearGradient6647"
       xlink:href="#linearGradient6388"
       gradientUnits="userSpaceOnUse"
       gradientTransform="matrix(0,1,1,0,-1.12132,-26.878679)" />
    <linearGradient
       x1="39.878677"
       y1="16.121321"
       x2="33.249554"
       y2="22.838835"
       id="linearGradient6651"
       xlink:href="#linearGradient6388"
       gradientUnits="userSpaceOnUse"
       gradientTransform="matrix(0,-1,1,0,-1.12132,55.878679)" />
  </defs>
  <g
     id="g6918">
    <g
       transform="matrix(1.0562405,0,0,1.205043,-0.674886,-5.921032)"
       id="g3217">
      <rect
         width="14.991517"
         height="3.3193836"
         x="4.504241"
         y="20.680616"
         id="rect4173"
         style="opacity:0.23613156;fill:url(#linearGradient5533);fill-opacity:1;fill-rule:nonzero;stroke:none;stroke-width:1;marker:none;visibility:visible;display:inline;overflow:visible" />
      <path
         d="m 19.495759,20.680731 c 0,0 0,3.3192 0,3.3192 1.598871,0.0062 3.865291,-0.743664 3.86529,-1.659813 0,-0.91615 -1.784219,-1.659387 -3.86529,-1.659387 z"
         id="path5058"
         style="opacity:0.23613156;fill:url(#radialGradient5535);fill-opacity:1;fill-rule:nonzero;stroke:none;stroke-width:1;marker:none;visibility:visible;display:inline;overflow:visible" />
      <path
         d="m 4.5042417,20.680731 c 0,0 0,3.3192 0,3.3192 -1.5988709,0.0062 -3.8652907,-0.743664 -3.8652907,-1.659813 0,-0.91615 1.784219,-1.659387 3.8652907,-1.659387 z"
         id="path5018"
         style="opacity:0.23613156;fill:url(#radialGradient5537);fill-opacity:1;fill-rule:nonzero;stroke:none;stroke-width:1;marker:none;visibility:visible;display:inline;overflow:visible" />
    </g>
    <rect
       width="21.00005"
       height="19.00005"
       rx="1"
       ry="1"
       x="1.4999752"
       y="2.4999752"
       id="rect1887"
       style="fill:url(#linearGradient5565);fill-opacity:1;stroke:#565853;stroke-width:0.99995029;stroke-miterlimit:4;stroke-opacity:1;stroke-dasharray:none" />
    <rect
       width="19.000065"
       height="17.000065"
       rx="0.5"
       ry="0.50000417"
       x="2.4999681"
       y="3.4999671"
       id="rect2779"
       style="opacity:0.2;fill:none;stroke:url(#linearGradient5562);stroke-width:0.99993587;stroke-miterlimit:4;stroke-opacity:1;stroke-dasharray:none" />
    <rect
       width="20"
       height="13"
       rx="0.50016552"
       ry="0.5"
       x="2"
       y="8"
       id="rect6287"
       style="fill:url(#linearGradient5559);fill-opacity:1;stroke:none" />
    <path
       d="M 21,5.0000004 C 21.000238,5.5522145 20.552453,6 20,6 19.447545,6 18.999759,5.5522145 19,5.0000004 18.999759,4.4477857 19.447545,4 20,4 c 0.552453,0 1.000238,0.4477857 1,1.0000004 l 0,0 z"
       id="path6293"
       style="fill:#ffc24c;fill-opacity:1;stroke:none" />
    <path
       d="m 18,5 c 2.38e-4,0.5522141 -0.447547,0.9999996 -1,0.9999996 -0.552455,0 -1.000241,-0.4477855 -1,-0.9999996 -2.41e-4,-0.5522147 0.447545,-1.0000004 1,-1.0000004 0.552453,0 1.000238,0.4477857 1,1.0000004 l 0,0 z"
       id="path6622"
       style="fill:#ffc24c;fill-opacity:1;stroke:none" />
    <path
       d="m 15,5 c 2.38e-4,0.5522141 -0.447547,0.9999996 -1,0.9999996 -0.552455,0 -1.000241,-0.4477855 -1,-0.9999996 -2.41e-4,-0.5522147 0.447545,-1.0000004 1,-1.0000004 0.552453,0 1.000238,0.4477857 1,1.0000004 l 0,0 z"
       id="path6630"
       style="fill:#ffc24c;fill-opacity:1;stroke:none" />
    <path
       d="M 9,9 7.585786,10.414214 6.171573,9 4.757359,10.414214 6.171573,11.828427 4.757359,13.242641 9,13.242641 9,9 z"
       id="rect5590"
       style="fill:url(#linearGradient6639);fill-opacity:1;stroke:none" />
    <path
       d="M 9,20.242641 7.585786,18.828427 6.171573,20.242641 4.757359,18.828427 6.171573,17.414214 4.757359,16 9,16 9,20.242641 z"
       id="path6641"
       style="fill:url(#linearGradient6643);fill-opacity:1;stroke:none" />
    <path
       d="m 15,8.757359 1.414214,1.414214 1.414213,-1.414214 1.414214,1.414214 -1.414214,1.414213 L 19.242641,13 15,13 15,8.757359 z"
       id="path6645"
       style="fill:url(#linearGradient6647);fill-opacity:1;stroke:none" />
    <path
       d="m 15,20.242641 1.414214,-1.414214 1.414213,1.414214 1.414214,-1.414214 L 17.828427,17.414214 19.242641,16 15,16 l 0,4.242641 z"
       id="path6649"
       style="fill:url(#linearGradient6651);fill-opacity:1;stroke:none" />
  </g>
</svg>

<?xml version="1.0" encoding="UTF-8" standalone="no"?>
<!-- Created with Inkscape (http://www.inkscape.org/) -->
<svg id="svg4375" xmlns="http://www.w3.org/2000/svg" height="24" width="24" version="1.0" xmlns:xlink="http://www.w3.org/1999/xlink">
 <defs id="defs4377">
  <linearGradient id="linearGradient5060">
   <stop id="stop5062" offset="0"/>
   <stop id="stop5064" style="stop-opacity:0" offset="1"/>
  </linearGradient>
  <linearGradient id="linearGradient5533" y2="609.51" gradientUnits="userSpaceOnUse" x2="302.86" gradientTransform="matrix(.031048 0 0 .013668 .77854 15.669)" y1="366.65" x1="302.86">
   <stop id="stop5050" style="stop-opacity:0" offset="0"/>
   <stop id="stop5056" offset=".5"/>
   <stop id="stop5052" style="stop-opacity:0" offset="1"/>
  </linearGradient>
  <radialGradient id="radialGradient5535" xlink:href="#linearGradient5060" gradientUnits="userSpaceOnUse" cy="486.65" cx="605.71" gradientTransform="matrix(.031048 0 0 .013668 .78465 15.669)" r="117.14"/>
  <radialGradient id="radialGradient5537" xlink:href="#linearGradient5060" gradientUnits="userSpaceOnUse" cy="486.65" cx="605.71" gradientTransform="matrix(-.031048 0 0 .013668 23.215 15.669)" r="117.14"/>
  <linearGradient id="linearGradient5559" y2="40" gradientUnits="userSpaceOnUse" x2="24" gradientTransform="matrix(.52632 0 0 .48148 -.63158 1.7407)" y1="13" x1="24">
   <stop id="stop6459" style="stop-color:#fff;stop-opacity:.94118" offset="0"/>
   <stop id="stop6461" style="stop-color:#fff;stop-opacity:.70588" offset="1"/>
  </linearGradient>
  <linearGradient id="linearGradient5562" y2="15.044" gradientUnits="userSpaceOnUse" x2="16.075" gradientTransform="matrix(.61291 0 0 .58621 -3.3226 -2.069)" y1="9.0735" x1="16.034">
   <stop id="stop3692" style="stop-color:#fff" offset="0"/>
   <stop id="stop3694" style="stop-color:#fff;stop-opacity:.46875" offset="1"/>
  </linearGradient>
  <linearGradient id="linearGradient5565" y2="39.924" gradientUnits="userSpaceOnUse" x2="21.78" gradientTransform="matrix(.63636 0 0 .62295 -3.9091 -3.1066)" y1="8.5763" x1="21.866">
   <stop id="stop2783" style="stop-color:#505050" offset="0"/>
   <stop id="stop6301" style="stop-color:#6e6e6e" offset=".13216"/>
   <stop id="stop2785" style="stop-color:#8c8c8c" offset="1"/>
  </linearGradient>
  <linearGradient id="linearGradient6388">
   <stop id="stop6390" style="stop-color:#73a300" offset="0"/>
   <stop id="stop6392" style="stop-color:#428300;stop-opacity:0" offset="1"/>
  </linearGradient>
  <linearGradient id="linearGradient6639" y2="22.839" xlink:href="#linearGradient6388" gradientUnits="userSpaceOnUse" x2="33.25" gradientTransform="matrix(0 1 -1 0 25.121 -26.636)" y1="16.121" x1="39.879"/>
  <linearGradient id="linearGradient6643" y2="22.839" xlink:href="#linearGradient6388" gradientUnits="userSpaceOnUse" x2="33.25" gradientTransform="matrix(0 -1 -1 0 25.121 55.879)" y1="16.121" x1="39.879"/>
  <linearGradient id="linearGradient6647" y2="22.839" xlink:href="#linearGradient6388" gradientUnits="userSpaceOnUse" x2="33.25" gradientTransform="matrix(0 1 1 0 -1.1213 -26.879)" y1="16.121" x1="39.879"/>
  <linearGradient id="linearGradient6651" y2="22.839" xlink:href="#linearGradient6388" gradientUnits="userSpaceOnUse" x2="33.25" gradientTransform="matrix(0 -1 1 0 -1.1213 55.879)" y1="16.121" x1="39.879"/>
 </defs>
 <g id="g6918">
  <g id="g3217" transform="matrix(1.0562 0 0 1.205 -.67489 -5.921)">
   <rect id="rect4173" style="opacity:.23613;fill:url(#linearGradient5533)" height="3.3194" width="14.992" y="20.681" x="4.5042"/>
   <path id="path5058" style="opacity:.23613;fill:url(#radialGradient5535)" d="m19.496 20.681v3.3192c1.5989 0.0062 3.8653-0.74366 3.8653-1.6598 0-0.91615-1.7842-1.6594-3.8653-1.6594z"/>
   <path id="path5018" style="opacity:.23613;fill:url(#radialGradient5537)" d="m4.5042 20.681v3.3192c-1.5989 0.0062-3.8653-0.74366-3.8653-1.6598 0-0.91615 1.7842-1.6594 3.8653-1.6594z"/>
  </g>
  <rect id="rect1887" style="stroke:#565853;stroke-width:.99995;fill:url(#linearGradient5565)" rx="1" ry="1" height="19" width="21" y="2.5" x="1.5"/>
  <rect id="rect2779" style="opacity:.2;stroke:url(#linearGradient5562);stroke-width:.99994;fill:none" rx=".5" ry="0.5" height="17" width="19" y="3.5" x="2.5"/>
  <rect id="rect6287" style="fill:url(#linearGradient5559)" rx=".50017" ry=".5" height="13" width="20" y="8" x="2"/>
  <path id="path6293" style="fill:#ffc24c" d="m21 5c0 0.5522-0.448 1-1 1s-1-0.4478-1-1 0.448-1 1-1c0.55245 0 1.0002 0.44779 1 1z"/>
  <path id="path6622" style="fill:#ffc24c" d="m18 5c0.000238 0.55221-0.44755 1-1 1-0.55246 0-1.0002-0.44779-1-1-0.000241-0.55221 0.44754-1 1-1 0.55245 0 1.0002 0.44779 1 1z"/>
  <path id="path6630" style="fill:#ffc24c" d="m15 5c0.000238 0.55221-0.44755 1-1 1-0.55246 0-1.0002-0.44779-1-1-0.000241-0.55221 0.44754-1 1-1 0.55245 0 1.0002 0.44779 1 1z"/>
  <path id="rect5590" style="fill:url(#linearGradient6639)" d="m9 9-1.4142 1.414-1.4142-1.414-1.4142 1.414 1.4142 1.414-1.4142 1.415h4.2426v-4.243z"/>
  <path id="path6641" style="fill:url(#linearGradient6643)" d="m9 20.243-1.4142-1.415-1.4142 1.415-1.4142-1.415 1.4142-1.414-1.4142-1.414h4.2426v4.243z"/>
  <path id="path6645" style="fill:url(#linearGradient6647)" d="m15 8.7574 1.4142 1.4142 1.4142-1.4142 1.4142 1.4142-1.4142 1.4142l1.415 1.414h-4.243v-4.2426z"/>
  <path id="path6649" style="fill:url(#linearGradient6651)" d="m15 20.243 1.4142-1.4142 1.4142 1.4142 1.4142-1.4142l-1.414-1.415 1.415-1.414h-4.243v4.2426z"/>
 </g>
</svg>
